alpha-j-box-outline.svg

<svg fill="currentColor" viewBox="0 0 24 24"><path d="M13 7h2v8a2 2 0 0 1-2 2h-2a2 2 0 0 1-2-2v-1h2v1h2zM5 3h14a2 2 0 0 1 2 2v14a2 2 0 0 1-2 2H5a2 2 0 0 1-2-2V5a2 2 0 0 1 2-2m0 2v14h14V5z"/></svg>

<svg  viewBox="0 0 24 24" fill="currentColor"><path  d="M13,7H15V15A2,2 0 0,1 13,17H11A2,2 0 0,1 9,15V14H11V15H13V7M5,3H19A2,2 0 0,1 21,5V19A2,2 0 0,1 19,21H5A2,2 0 0,1 3,19V5A2,2 0 0,1 5,3M5,5V19H19V5H5Z"/></svg>
